X: 51
T: the King of the Fairies
R: march, hornpipe
%T: King William or Orange
%T: Bonny Charlie
O: Ireland, Scotland
Z: 2014 John Chambers <jc:trillian.mit.edu>
S: handwritten MS by John Chambers (1970s)
M: 2/4
L: 1/16
K: Edor
B,2 |\
"Em"EDEF GFGA | B2B2 G3A | "Em"B2E2 EFGE | "D"FGFE "(Bm)"D2B,2 |\
"Em"EDEF GFGA | BAGB "D"d3=c | "Em"B2E2 "D"GFED | "Em"E6 :|
d2 |\
"Em"e2e2 "Bm"Bdef | "Em"gagf e3f | "Em"e2B2 BABc | "D"dedc "(Bm)"BcdB |\
"Em"e2B2 "Bm"Bdef | "Em"gagf efed | "Em"Bdeg "D"fedf | "Em"e6 ||
ef |\
"G"g3e "D"f3d | "G"edBc "D"d3e | "D"dBAF "G"GABc | "D"dBAF GFED |\
"Em"B,2E2 EFGA | B2e2 edef | e2B2 "D"BAGF | "Em"E6 |]

%%sep 1 1 500

